

SynthDef("kickRingz", {arg freq = 40, decay = 0.25, amp = 1;
	var snd;
	snd = Ringz.ar(
		in: LPF.ar(
			in: Impulse.ar(0),
			freq: 1000),
		freq: freq,
		decaytime: decay,
		mul: 7 * amp).tanh.sin*2;
	Out.ar(0, snd!2);
}).add;

