/* Retrieved from
http://sccode.org/1-5aD
*/

SynthDef("snare", {arg out = 0, amp = 0.1, sinfreq = 180, att = 0.01, rel = 0.2, ffreq = 2000, pan = 0;
	var env, snd1, snd2, sum;
	env = Env.perc(att, rel, amp).kr(doneAction: 2);
	snd1 = HPF.ar(
		in: WhiteNoise.ar,
		freq: ffreq,
		mul: env
	);
	snd2 = SinOsc.ar(freq: sinfreq, mul: env);
	sum = snd1 + snd2;
	Out.ar(out, Pan2.ar(sum, pan));

//By Nathan Ho aka Snappizz
//http://sccode.org/1-523
}).add;
