Pbindef( \arpoctave,
	\instrument, "arpoctave",
	\dur, Pseq([3.25, Rest(0.75)], inf),
	\ctranspose, -10,
	\degree, Pseq([0, \rest, 3, \rest, 0, \rest, 3, \rest, 5, \rest, 4, \rest, 0]),
	\amp, 0.3,
);