Pbindef( \clap_electro,
	\instrument, "clap_electro",
	\att, Pseq([0.02, 0.02, 0.02, 0.25, 0.02, 0.02, 0.02, 0.25, 0.02, 0.02, 0.25, 0.02, 0.02]),
	\dur, Pseq([1, 1, 1, 2, 1, 1, 1, 2, 1, 1, 2, 1, 1]) / 4,
	\amp, 1,
);