Pbindef(\clapGray,
	\instrument, "clapGray",
	\dur, Pseq([1/4, 1/4, 1/4, 1/4, 1/4, 1/8, 1/8, 1/4, 1/8, 1/8], 2),
	\amp, Pseq([0.02, 1, 1, 0.02, 1, 0.02, 1, 0.02, 1, 0.5], 2),
	\maxDelay, 0.05,
	\decay, 0.15,
	\rq, 0.4,
	\att, 0.001,
	\rel, 0.25
);