Pbindef( \cs80leadMH,
	\instrument, "cs80leadMH",
	\ctranspose, 3,
	\dur, Pseq([4, 2, 3, 7, Rest(5/2), 5/2, 3/4, 9/4]) * 0.85,
	\amp, 0.5,
	\legato, 1,
	\degree, Pseq([0, 1, -2, -3, \rest, 0, 1, 3])
);