Pbindef(\cymbal808,
	\instrument, "cymbal808",
	\att, 0.002,
	\dec, Pseq([Pn(0.25, 7), Pwhite(0.01, 0.1, 8)]),
	\rel, Pseq([Pn(0.05, 7), Pwhite(0.01, 0.1, 8)]),
	\dur, Pseq([Pn(1/4, 4), 4/11, 4/11, 3/11], 2),
	\amp, 1,
);