Pbindef(\defaultB,
	\instrument, "defaultB",
    \ctranspose, -24,
	\strum, 0.07,
    \legato, 0.3,
	\dur, 1/2,
	\degree, Pseq([
		[0, 2, 4], [2, 4, 6], [4, 6, 8], [6, 8, 10], [8, 10, 12], [10, 12, 14], [12, 14, 16], [14, 16, 18],
		[16, 18, 20], [18, 20, 22], [20, 22, 24], [22, 24, 26], [0, 7, 14, 21]
	         ], 1),
	\amp, 1,
);