Pbindef( \everythingRhodes,
	\instrument, "everythingrhodes",
	\ctranspose, 7,
	\strum, 0.05,
	\dur, Pseq([1, 0.5, 1.5, 0.25, 0.25, 0.5, 1, 2], 1),
	\degree, Pseq([[-1, 2, 4], 5, [1, 4, 6], 7, 8, [0, 4, 6], 7, 0], 1),
	\amp, 0.4,
);
