Pbindef( \feedbackPad3,
	\instrument, "feedbackPad3",
	\dur, 10,
	\legato, 0.9,
	\sampleRate, Pwhite(20.0, 25.0),
	\midinote, Pseq([ // Welcome to the ocean!
		[43, 47], [41, 48], [43, 47], [41, 48],
		[43, 47], [41, 48], [41, 45], [39, 46],
	])
);