Pbindef( \harpsichord2,
	\instrument, "harpsichord2",
	\ctranspose, -8,
	\dur, Pseq([1/4, 1/4, 1/4, 1/4, 1/2, 1/4, 1/4, 3/4, 1/4, 1/2, 1/2, 1]) / 1.7,
	\amp, 1,
	\legato, 1,
	\degree, Pseq([[0, 4, 7, 9], 8, 7, 8, [-2, 5, 9], 7, 9, [1, 5, 8, 10], 12, [-3, 6, 8, 11], 10, [0, 2, 9, 11]])
);