Pbindef( \organTonewheel0,
	\instrument, "organTonewheel0",
	\note, Pseq([Pseq([[-12, 0], [-12, 4], [-12, 7], [-12, 8], [-12, 7], [-5, 4]], 2), [-5, -1], [-12, 0, 3, 7]]),
	\dur, Pseq([Pwhite(0.2, 0.23, 12), 0.4, 0.1]),
	\legato, 1
);