Pbindef( \pmCrotales,
	\instrument, "pmCrotales",
	\ctranspose, 18,
	\dur, Pseq([2, 3, 2, 2, 3, 3, 2, 2, 3, 2], inf)/12,
	\amp, 0.5,
	\strum, Pwhite(-0.05, 0.05),
	\degree, Pseq([
		    [8, 1],  8,     8,  8,      8,     [8, 1], 8,  8,      8,  8,
		    [8, 1],  8,     8, [8, 3],  8,     [8, 1], 8, [8, 0], 8,  8,
		    [8, 0], [8, 1], 8, [8, 3], [8, 2], [8, 4], 8, [8, 3], 8, [8, 0],
		    [8, 1],  8,     8, [8, 3],  8,     [8, 1], 8, [8, 0], 8,  8, [8, 1]
	])
);