Pbindef( \snareStein,
	\instrument, "snareStein",
	\dur, 1/8,
	\amp, Pseq([
		1, 0.5, 0.7, 0.5, 0.5, 0.7, 0.5,
		1, 0.5, 0.7, 0.5, 0.5, 0.7, 0.5,
		1, 0.5, 0.7, 0.5, 0.7, 0.5, 0.5,
		1, 0.6, 1]),
	\toneAmp, Pkey(\amp) * 0.5,
	\curve, Pseq([
		1, 2, 1, 2, 2, 1, 2,
		1, 2, 1, 2, 2, 1, 2,
		1, 2, 1, 2, 1, 2, 1,
		1, 2, 1]) * -4,
	\noiserel, Pseq([
		1, 3, 1, 3, 3, 1, 3,
		1, 3, 1, 3, 3, 1, 3,
		1, 3, 1, 3, 1, 3, 1,
		1, 3, 1]) / 6,
);