Pbindef( \steelDrum,
	\instrument, "steelDrum",
	\ctranspose, 0,
	\beatFreq, 9,
	\dur, Pseq([Pn(1/6, 3), Pn(1/3, 2), 1/6, Pn(1/3, 4), Pn(1/6, 3), Pn(1/3, 2), 1/6, Pn(1/3, 2), 1], 1),
    \degree, Pseq([2, 4, 7, 9, 9, 4, 8, 10, 9, 7, 0, 2, 4, 7, 7, 1, 6, 8, 7], 1),
	\amp, 0.5,
);