Pbindef( \trig_demo,
	\instrument, "trig_demo",
	\ctranspose, 6,
	\dur, Pseq([Pseq([1/8, 1/4, 1/8, 1/4, 1/8, 1/8], 4), 1/2]) * 1.1,
    \degree, Pseq([
		[5, 7], 3, 6, 4, [0, 4], 2,
		[5, 7], 3, 6, 4, [3, 6], 4,
		[7, 9], 5, 8, 6, [7, 9], 2,
		[5, 7], 3, 6, 4, [2, 4], 1,
		[0, 4]]),
	\amp, 1,
);