SynthDef("harpsichord1", { arg out = 0, freq = 440, amp = 0.1, pan = 0;
    var env, snd;
	env = Env.perc(level: amp).kr(doneAction: 2);
	snd = Pulse.ar(freq, 0.25, 0.75);
	snd = snd * env;
	Out.ar(out, Pan2.ar(snd, pan));
},
metadata: (
	credit: "unknown",
	category: \keyboards,
	tags: [\pitched, \harpsichord]
)
).add;