SynthDef("snare1", {arg out = 0, amp = 0.1, sinfreq = 180, att = 0.01, rel = 0.2, ffreq = 2000, pan = 0;
	var snd1 = WhiteNoise.ar(amp);
	var snd2 = SinOsc.ar(sinfreq,0,amp);
	var env = EnvGen.kr(Env.perc(att, rel), doneAction: 2);
	var sum = HPF.ar(snd1 * env, ffreq)+(snd2*env);
	Out.ar(out, Pan2.ar(sum, pan));
}).add;