/* Retrieved from
http://sccode.org/1-5aD
*/

SynthDef("hihat", {arg out = 0, amp = 0.5, att = 0.01, rel = 0.2, ffreq = 6000, pan = 0;
	var env, snd;
	env = Env.perc(att, rel, amp).kr(doneAction: 2);
	snd = WhiteNoise.ar;
	snd = HPF.ar(in: snd, freq: ffreq, mul: env);
	Out.ar(out, Pan2.ar(snd, pan));

//By Nathan Ho aka Snappizz
//http://sccode.org/1-523
}).add;
